Origami/64x64/apps/kwordquiz.svg

<svg width="64" height="64" version="1" xmlns="http://www.w3.org/2000/svg">
 <path d="m12.754 5.9992c-1.5256 0-2.754 1.1604-2.754 2.6008v46.8c0 1.44 1.2284 2.6 2.754 2.6h38.496c1.524 0 2.75-1.16 2.75-2.6v-46.8c0-1.4396-1.226-2.6-2.75-2.6h-38.496z" style="opacity:.2"/>
 <path d="m12.754 5c-1.5256 0-2.754 1.1604-2.754 2.6008v46.8c0 1.44 1.2284 2.6 2.754 2.6h38.496c1.524 0 2.75-1.16 2.75-2.6v-46.8c0-1.4396-1.226-2.6-2.75-2.6h-38.496z" style="fill:#cccccc"/>
 <path d="m12.753906 5c-1.5256 0-2.753906 1.1611625-2.753906 2.6015625v1c0-1.4404 1.228306-2.6015625 2.753906-2.6015625h38.496094c1.524 0 2.75 1.1611625 2.75 2.6015625v-1c0-1.4404-1.226-2.6015625-2.75-2.6015625h-38.496094z" style="fill:#ffffff;opacity:.2"/>
 <path d="m12 13v2h16v-2h-16zm0 4v2h8v-2h-8zm0 4v2h10v-2h-10zm0 4v2h4v-2h-4zm0 4v2h10v-2h-10z" style="opacity:.5"/>
</svg>

<svg xmlns="http://www.w3.org/2000/svg" width="64" height="64" version="1">
 <path style="opacity:0.2" d="M 12.754,5.9992 C 11.2284,5.9992 10,7.1596 10,8.6 l 0,46.8 c 0,1.44 1.2284,2.6 2.754,2.6 L 51.25,58 C 52.774,58 54,56.84 54,55.4 L 54,8.6 C 54,7.1604 52.774,6 51.25,6 L 12.754,6 Z"/>
 <path style="fill:#cccccc" d="M 12.754,5 C 11.2284,5 10,6.1604 10,7.6008 l 0,46.8 c 0,1.44 1.2284,2.6 2.754,2.6 l 38.496,0 c 1.524,0 2.75,-1.16 2.75,-2.6 l 0,-46.8 c 0,-1.4396 -1.226,-2.6 -2.75,-2.6 l -38.496,0 z"/>
 <path style="opacity:0.2;fill:#ffffff" d="M 12.753906 5 C 11.228306 5 10 6.1611625 10 7.6015625 L 10 8.6015625 C 10 7.1611625 11.228306 6 12.753906 6 L 51.25 6 C 52.774 6 54 7.1611625 54 8.6015625 L 54 7.6015625 C 54 6.1611625 52.774 5 51.25 5 L 12.753906 5 z"/>
 <path style="opacity:0.5" d="m 12,13 0,2 16,0 0,-2 -16,0 z m 0,4 0,2 8,0 0,-2 -8,0 z m 0,4 0,2 10,0 0,-2 -10,0 z m 0,4 0,2 4,0 0,-2 -4,0 z m 0,4 0,2 10,0 0,-2 -10,0 z"/>
</svg>
